icons/icn_mapStan.svg

<svg width="24" xmlns="http://www.w3.org/2000/svg" height="23.992" id="screenshot-701359cf-58fd-8059-8006-76ef390bb56d" viewBox="0 0 24 23.992" xmlns:xlink="http://www.w3.org/1999/xlink" fill="none" version="1.1"><g id="shape-701359cf-58fd-8059-8006-76ef390bb56d"><g class="frame-container-wrapper"><g class="frame-container-blur"><g class="frame-container-shadows"><g fill="none"><g class="fills" id="fills-701359cf-58fd-8059-8006-76ef390bb56d"><rect rx="0" ry="0" x="0" y="0" width="24" height="23.992269617594275" transform="matrix(1, 0, 0, 1, 0, 0)" class="frame-background"/></g><g class="frame-children"><g id="shape-701359cf-58fd-8059-8006-76ecffad2532" width="24" height="24" version="1.1" rx="0" ry="0" style="fill: rgb(0, 0, 0);"><g id="shape-701359cf-58fd-8059-8006-76ecffb0baaa" style="opacity: 1;"><g class="fills" id="fills-701359cf-58fd-8059-8006-76ecffb0baaa"><path d="M5.260100364685059,2.0793159008026123C3.5096120834350586,2.0793159008026123,2.0784597396850586,3.5173041820526123,2.0784597396850586,5.268036365509033L2.0784597396850586,18.731903076171875C2.0784597396850586,20.482757568359375,3.5096120834350586,21.913421630859375,5.260100364685059,21.913421630859375L18.738615036010742,21.913421630859375C20.490079879760742,21.913421630859375,21.920011520385742,20.482757568359375,21.920011520385742,18.731903076171875L21.920011520385742,5.268036365509033C21.920011520385742,3.5173041820526123,20.490079879760742,2.0793159008026123,18.738615036010742,2.0793159008026123ZM5.260100364685059,3.5481879711151123L18.738615036010742,3.5481879711151123C19.702970504760742,3.5481879711151123,20.451261520385742,4.304413318634033,20.451261520385742,5.268036365509033L20.451261520385742,18.731903076171875C20.451261520385742,19.695648193359375,19.702970504760742,20.451873779296875,18.738615036010742,20.451873779296875L5.260100364685059,20.451873779296875C4.296721458435059,20.451873779296875,3.5474538803100586,19.695648193359375,3.5474538803100586,18.731903076171875L3.5474538803100586,5.268036365509033C3.5474538803100586,4.304413318634033,4.296721458435059,3.5481879711151123,5.260100364685059,3.5481879711151123Z" style="display: inline; stroke-linecap: round; stroke-linejoin: round; fill: rgb(0, 0, 0); fill-opacity: 1;"/></g></g></g></g></g></g></g></g></g></svg>

<svg fill="none" viewBox="0 0 24 23.992"><g class="frame-container-wrapper"><g class="frame-container-blur"><g class="frame-container-shadows"><g class="fills"><rect width="24" height="23.9923" class="frame-background" rx="0" ry="0"/></g><g class="frame-children"><path fill="#000" d="M5.2601 2.0793c-1.7505 0-3.1816 1.438-3.1816 3.1887V18.732c0 1.7509 1.4311 3.1815 3.1816 3.1815h13.4785c1.7515 0 3.1814-1.4306 3.1814-3.1815V5.268c0-1.7507-1.43-3.1887-3.1814-3.1887Zm0 1.4689h13.4785c.9644 0 1.7127.7562 1.7127 1.7198V18.732c0 .9637-.7483 1.72-1.7127 1.72H5.2601c-.9634 0-1.7126-.7563-1.7126-1.72V5.268c0-.9636.7492-1.7198 1.7126-1.7198Z" class="fills"/></g></g></g></g></svg>
